(Project heatsink bracket)
(Created by Estlcam version 11 build 11.238)
(Machining time about 01:56:18 hours)

(Required tools:)
(1/8th  2 flute)

G90
M03 S15000
G00 Z3.1750


(No. 1: Drill 2)
G00 X2.7569 Y2.7858
G00 Z0.5000
G01 Z-0.9906 F20 S15000
G00 Z0.5000
G00 Z-0.4906
G01 Z-1.9812
G00 Z0.5000
G00 Z-1.4812
G01 Z-2.2352
G00 Z3.1750


(No. 2: Drill 1)
G00 X2.7569 Y20.8214 Z3.1750
G00 Z0.5000
G01 Z-0.9906 F20
G00 Z0.5000
G00 Z-0.4906
G01 Z-1.9812
G00 Z0.5000
G00 Z-1.4812
G01 Z-2.2352
G00 Z3.1750


(No. 3: Drill 3)
G00 X54.5069 Y38.0714 Z3.1750
G00 Z0.5000
G01 Z-0.9906 F20
G00 Z0.5000
G00 Z-0.4906
G01 Z-1.9812
G00 Z0.5000
G00 Z-1.4812
G01 Z-2.2352
G00 Z3.1750


(No. 4: Drill 4)
G00 X54.5069 Y18.0358 Z3.1750
G00 Z0.5000
G01 Z-0.9906 F20
G00 Z0.5000
G00 Z-0.4906
G01 Z-1.9812
G00 Z0.5000
G00 Z-1.4812
G01 Z-2.2352
G00 Z3.1750


(No. 5: Hole 1)
G00 X54.1646 Y37.8427 Z3.1750
G00 Z0.5000
G01 Z0.0000 F20
G03 X54.8761 Y37.8893 Z-0.4311 I0.3423 J0.2287
G03 X54.9141 Y38.0114 Z-0.4953 I-0.3692 J0.1821
G02 X54.8761 Y37.8893 Z-0.5595 I-0.4073 J0.0599
G02 X54.1646 Y37.8427 Z-0.9906 I-0.3692 J0.1821
G03 X54.8761 Y37.8893 I0.3423 J0.2287
G03 X54.4799 Y38.4821 I-0.3692 J0.1821
G03 X54.1646 Y37.8427 I0.0269 J-0.4108
G03 X54.8761 Y37.8893 Z-1.4217 I0.3423 J0.2287
G03 X54.9141 Y38.0114 Z-1.4859 I-0.3692 J0.1821
G02 X54.8761 Y37.8893 Z-1.5501 I-0.4073 J0.0599
G02 X54.1646 Y37.8427 Z-1.9812 I-0.3692 J0.1821
G03 X54.8761 Y37.8893 I0.3423 J0.2287
G03 X54.4799 Y38.4821 I-0.3692 J0.1821
G03 X54.1646 Y37.8427 I0.0269 J-0.4108
G03 X54.3600 Y37.6868 Z-2.1082 I0.3423 J0.2287
G02 X54.1646 Y37.8427 Z-2.2352 I0.1468 J0.3846
G03 X54.8761 Y37.8893 I0.3423 J0.2287
G03 X54.4799 Y38.4821 I-0.3692 J0.1821
G03 X54.1646 Y37.8427 I0.0269 J-0.4108
G00 Z3.1750


(No. 6: Hole 2)
G00 X54.1170 Y17.9034 Z3.1750
G00 Z0.5000
G01 Z0.0000 F20
G03 X54.8163 Y17.7643 Z-0.4311 I0.3898 J0.1323
G03 X54.8847 Y17.8725 Z-0.4953 I-0.3095 J0.2714
G02 X54.8163 Y17.7643 Z-0.5595 I-0.3779 J0.1633
G02 X54.1170 Y17.9034 Z-0.9906 I-0.3095 J0.2714
G03 X54.8163 Y17.7643 I0.3898 J0.1323
G03 X54.5872 Y18.4395 I-0.3095 J0.2714
G03 X54.1170 Y17.9034 I-0.0803 J-0.4037
G03 X54.8163 Y17.7643 Z-1.4217 I0.3898 J0.1323
G03 X54.8847 Y17.8725 Z-1.4859 I-0.3095 J0.2714
G02 X54.8163 Y17.7643 Z-1.5501 I-0.3779 J0.1633
G02 X54.1170 Y17.9034 Z-1.9812 I-0.3095 J0.2714
G03 X54.8163 Y17.7643 I0.3898 J0.1323
G03 X54.5872 Y18.4395 I-0.3095 J0.2714
G03 X54.1170 Y17.9034 I-0.0803 J-0.4037
G03 X54.2655 Y17.7023 Z-2.1082 I0.3898 J0.1323
G02 X54.1170 Y17.9034 Z-2.2352 I0.2414 J0.3335
G03 X54.8163 Y17.7643 I0.3898 J0.1323
G03 X54.5872 Y18.4395 I-0.3095 J0.2714
G03 X54.1170 Y17.9034 I-0.0803 J-0.4037
G00 Z3.1750


(No. 7: Drill 5)
G00 X97.2569 Y20.8214 Z3.1750
G00 Z0.5000
G01 Z-0.9906 F20
G00 Z0.5000
G00 Z-0.4906
G01 Z-1.9812
G00 Z0.5000
G00 Z-1.4812
G01 Z-2.2352
G00 Z3.1750


(No. 8: Drill 6)
G00 X97.2569 Y2.7858 Z3.1750
G00 Z0.5000
G01 Z-0.9906 F20
G00 Z0.5000
G00 Z-0.4906
G01 Z-1.9812
G00 Z0.5000
G00 Z-1.4812
G01 Z-2.2352
G00 Z3.1750


(No. 9: Part 1)
G00 X57.0485 Y9.4483 Z3.1750
G00 Z0.5000
G01 Z0.0000 F20
G01 X56.0579 Z-0.4953
G01 X57.0485 Z-0.9906
G01 X54.0829
G02 X53.5152 Y9.5533 I0.0000 J1.5875
G01 X43.3450 Y13.4483
G01 X40.6585
G01 Y0.0218
G02 X39.0710 Y-1.5657 I-1.5875 J0.0000
G01 X21.6323
G00 Z0.0000
G01 X17.4667
G01 X16.4761 Z-0.4953
G01 X17.4667 Z-0.9906
G01 X0.0281
G02 X-1.5594 Y0.0218 I0.0000 J1.5875
G01 Y1.4390
G00 Z0.0000
G01 Y5.2718
G02 X-1.5241 Y5.6021 I1.5234 J0.0042
G02 X-1.0388 Y6.4473 Z-0.4953 I1.5518 J-0.3291
G03 X-1.5241 Y5.6021 Z-0.9906 I1.0665 J-1.1743
G02 X0.0281 Y6.8593 I1.5518 J-0.3291
G01 X14.0480
G00 Z0.0000
G01 X18.2136
G01 X19.2042 Z-0.4953
G01 X18.2136 Z-0.9906
G01 X32.2335
G01 Y11.8647
G00 Z0.0000
G01 Y16.0303
G01 Y17.0209 Z-0.4953
G01 Y16.0303 Z-0.9906
G01 Y21.0358
G02 X33.8210 Y22.6233 I1.5875 J0.0000
G01 X41.4668
G00 Z0.0000
G01 X45.6324
G01 X46.6230 Z-0.4953
G01 X45.6324 Z-0.9906
G01 X63.0069
G02 X64.5944 Y21.0358 I0.0000 J-1.5875
G01 Y16.6233
G01 X72.1649
G02 X72.8589 Y16.4635 I0.0000 J-1.5875
G01 X77.5867 Y14.1654
G00 Z0.0000
G01 X81.3332 Y12.3443
G01 X82.2241 Y11.9112 Z-0.4953
G01 X81.3332 Y12.3443 Z-0.9906
G01 X92.6621 Y6.8375
G01 X100.0126
G02 X101.6001 Y5.2500 I0.0000 J-1.5875
G01 Y4.7078
G00 Z0.0000
G01 Y0.5422
G02 X101.5460 Y-0.4109 Z-0.4798 I-2.6724 J-0.3264
G02 X101.5377 Y-0.4407 Z-0.4953 I-1.5334 J0.4109
G03 X101.5460 Y-0.4109 Z-0.5108 I-1.5251 J0.4407
G03 X101.6001 Y0.5422 Z-0.9906 I-2.6183 J0.6267
G02 X101.5460 Y-0.4109 I-2.6724 J-0.3264
G02 X100.0126 Y-1.5875 I-1.5334 J0.4109
G01 X92.2967
G02 X91.6027 Y-1.4278 I0.0000 J1.5875
G01 X82.2885 Y3.0997
G00 Z0.0000
G01 X78.5421 Y4.9208
G01 X77.6512 Y5.3539 Z-0.4953
G01 X78.5421 Y4.9208 Z-0.9906
G01 X69.2279 Y9.4483
G01 X61.2141
G00 Z0.0000
G01 X57.0485
G00 Z-0.4906
G01 Z-0.9906
G01 X56.0579 Z-1.4859
G01 X57.0485 Z-1.9812
G01 X54.0829
G02 X53.5152 Y9.5533 I0.0000 J1.5875
G01 X43.3450 Y13.4483
G01 X40.6585
G01 Y0.0218
G02 X39.0710 Y-1.5657 I-1.5875 J0.0000
G01 X21.6323
G00 Z0.0000
G01 X17.4667
G00 Z-0.4906
G01 Z-0.9906
G01 X16.4761 Z-1.4859
G01 X17.4667 Z-1.9812
G01 X0.0281
G02 X-1.5594 Y0.0218 I0.0000 J1.5875
G01 Y1.4390
G00 Z0.0000
G01 Y5.2718
G02 X-1.5241 Y5.6021 I1.5234 J0.0042
G00 Z-0.4906
G01 Z-0.9906
G02 X-1.0388 Y6.4473 Z-1.4859 I1.5518 J-0.3291
G03 X-1.5241 Y5.6021 Z-1.9812 I1.0665 J-1.1743
G02 X0.0281 Y6.8593 I1.5518 J-0.3291
G01 X14.0480
G00 Z0.0000
G01 X18.2136
G00 Z-0.4906
G01 Z-0.9906
G01 X19.2042 Z-1.4859
G01 X18.2136 Z-1.9812
G01 X32.2335
G01 Y11.8647
G00 Z0.0000
G01 Y16.0303
G00 Z-0.4906
G01 Z-0.9906
G01 Y17.0209 Z-1.4859
G01 Y16.0303 Z-1.9812
G01 Y21.0358
G02 X33.8210 Y22.6233 I1.5875 J0.0000
G01 X41.4668
G00 Z0.0000
G01 X45.6324
G00 Z-0.4906
G01 Z-0.9906
G01 X46.6230 Z-1.4859
G01 X45.6324 Z-1.9812
G01 X63.0069
G02 X64.5944 Y21.0358 I0.0000 J-1.5875
G01 Y16.6233
G01 X72.1649
G02 X72.8589 Y16.4635 I0.0000 J-1.5875
G01 X77.5867 Y14.1654
G00 Z0.0000
G01 X81.3332 Y12.3443
G00 Z-0.4906
G01 Z-0.9906
G01 X82.2241 Y11.9112 Z-1.4859
G01 X81.3332 Y12.3443 Z-1.9812
G01 X92.6621 Y6.8375
G01 X100.0126
G02 X101.6001 Y5.2500 I0.0000 J-1.5875
G01 Y4.7078
G00 Z0.0000
G01 Y0.5422
G00 Z-0.4906
G01 Z-0.9906
G02 X101.5460 Y-0.4109 Z-1.4704 I-2.6724 J-0.3264
G02 X101.5377 Y-0.4407 Z-1.4859 I-1.5334 J0.4109
G03 X101.5460 Y-0.4109 Z-1.5014 I-1.5251 J0.4407
G03 X101.6001 Y0.5422 Z-1.9812 I-2.6183 J0.6267
G02 X101.5460 Y-0.4109 I-2.6724 J-0.3264
G02 X100.0126 Y-1.5875 I-1.5334 J0.4109
G01 X92.2967
G02 X91.6027 Y-1.4278 I0.0000 J1.5875
G01 X82.2885 Y3.0997
G00 Z0.0000
G01 X78.5421 Y4.9208
G00 Z-0.4906
G01 Z-0.9906
G01 X77.6512 Y5.3539 Z-1.4859
G01 X78.5421 Y4.9208 Z-1.9812
G01 X69.2279 Y9.4483
G01 X61.2141
G00 Z0.0000
G01 X57.0485
G00 Z-1.4812
G01 Z-1.9812
G01 X56.7945 Z-2.1082
G01 X57.0485 Z-2.2352
G01 X54.0829
G02 X53.5152 Y9.5533 I0.0000 J1.5875
G01 X43.3450 Y13.4483
G01 X40.6585
G01 Y0.0218
G02 X39.0710 Y-1.5657 I-1.5875 J0.0000
G01 X21.6323
G00 Z0.0000
G01 X17.4667
G00 Z-1.4812
G01 Z-1.9812
G01 X17.2127 Z-2.1082
G01 X17.4667 Z-2.2352
G01 X0.0281
G02 X-1.5594 Y0.0218 I0.0000 J1.5875
G01 Y1.4390
G00 Z0.0000
G01 Y5.2718
G02 X-1.5241 Y5.6021 I1.5234 J0.0042
G00 Z-1.4812
G01 Z-1.9812
G02 X-1.4518 Y5.8453 Z-2.1082 I1.5518 J-0.3291
G03 X-1.5241 Y5.6021 Z-2.2352 I1.4795 J-0.5723
G02 X0.0281 Y6.8593 I1.5518 J-0.3291
G01 X14.0480
G00 Z0.0000
G01 X18.2136
G00 Z-1.4812
G01 Z-1.9812
G01 X18.4676 Z-2.1082
G01 X18.2136 Z-2.2352
G01 X32.2335
G01 Y11.8647
G00 Z0.0000
G01 Y16.0303
G00 Z-1.4812
G01 Z-1.9812
G01 Y16.2843 Z-2.1082
G01 Y16.0303 Z-2.2352
G01 Y21.0358
G02 X33.8210 Y22.6233 I1.5875 J0.0000
G01 X41.4668
G00 Z0.0000
G01 X45.6324
G00 Z-1.4812
G01 Z-1.9812
G01 X45.8864 Z-2.1082
G01 X45.6324 Z-2.2352
G01 X63.0069
G02 X64.5944 Y21.0358 I0.0000 J-1.5875
G01 Y16.6233
G01 X72.1649
G02 X72.8589 Y16.4635 I0.0000 J-1.5875
G01 X77.5867 Y14.1654
G00 Z0.0000
G01 X81.3332 Y12.3443
G00 Z-1.4812
G01 Z-1.9812
G01 X81.5616 Y12.2333 Z-2.1082
G01 X81.3332 Y12.3443 Z-2.2352
G01 X92.6621 Y6.8375
G01 X100.0126
G02 X101.6001 Y5.2500 I0.0000 J-1.5875
G01 Y4.7078
G00 Z0.0000
G01 Y0.5422
G00 Z-1.4812
G01 Z-1.9812
G02 X101.6190 Y0.2890 Z-2.1082 I-2.6724 J-0.3264
G03 X101.6001 Y0.5422 Z-2.2352 I-2.6913 J-0.0732
G02 X101.5460 Y-0.4109 I-2.6724 J-0.3264
G02 X100.0126 Y-1.5875 I-1.5334 J0.4109
G01 X92.2967
G02 X91.6027 Y-1.4278 I0.0000 J1.5875
G01 X82.2885 Y3.0997
G00 Z0.0000
G01 X78.5421 Y4.9208
G00 Z-1.4812
G01 Z-1.9812
G01 X78.3137 Y5.0318 Z-2.1082
G01 X78.5421 Y4.9208 Z-2.2352
G01 X69.2279 Y9.4483
G01 X61.2141
G00 Z0.0000
G01 X57.0485
G00 Z3.1750


(No. 10: Part 2)
G00 X11.1645 Y16.4935 Z3.1750
G00 Z0.5000
G01 Z0.0000 F20
G01 X10.1739 Z-0.4953
G01 X11.1645 Z-0.9906
G01 X0.0000
G02 X-1.5875 Y18.0810 I0.0000 J1.5875
G01 Y18.6232
G00 Z0.0000
G01 Y22.7888
G02 X-1.5334 Y23.7419 Z-0.4798 I2.6724 J0.3264
G02 X-1.5251 Y23.7717 Z-0.4953 I1.5334 J-0.4109
G03 X-1.5334 Y23.7419 Z-0.5108 I1.5251 J-0.4407
G03 X-1.5875 Y22.7888 Z-0.9906 I2.6183 J-0.6267
G02 X-1.5334 Y23.7419 I2.6724 J0.3264
G02 X0.0000 Y24.9185 I1.5334 J-0.4109
G01 X19.6571
G01 Y30.9121
G00 Z0.0000
G01 Y35.0777
G01 Y36.0683 Z-0.4953
G01 Y35.0777 Z-0.9906
G01 Y41.0714
G02 X21.2446 Y42.6589 I1.5875 J0.0000
G01 X36.0334
G00 Z0.0000
G01 X40.1990
G01 X41.1896 Z-0.4953
G01 X40.1990 Z-0.9906
G01 X63.0069
G02 X64.5944 Y41.0714 I0.0000 J-1.5875
G01 Y31.8733
G01 X80.2239
G00 Z0.0000
G01 X84.3895
G01 X85.3801 Z-0.4953
G01 X84.3895 Z-0.9906
G01 X100.0189
G02 X101.6064 Y30.2858 I0.0000 J-1.5875
G01 Y26.2563
G00 Z0.0000
G01 Y22.0907
G01 Y21.1001 Z-0.4953
G01 Y22.0907 Z-0.9906
G01 Y18.0613
G02 X100.0189 Y16.4738 I-1.5875 J0.0000
G01 X94.7689
G02 X93.1814 Y18.0613 I0.0000 J1.5875
G01 Y23.4483
G01 X83.4561
G00 Z0.0000
G01 X79.2905
G01 X78.2999 Z-0.4953
G01 X79.2905 Z-0.9906
G01 X57.7569
G02 X56.1694 Y25.0358 I0.0000 J1.5875
G01 Y29.4839
G01 X47.9780
G02 X44.8462 Y31.0842 I-0.3183 J3.2417
G02 X44.4194 Y32.6697 I2.7320 J1.5856
G01 Y33.4839
G01 X38.3336
G00 Z0.0000
G01 X34.1680
G01 X33.1774 Z-0.4953
G01 X34.1680 Z-0.9906
G01 X28.0821
G01 Y18.0810
G02 X26.4946 Y16.4935 I-1.5875 J0.0000
G01 X15.3301
G00 Z0.0000
G01 X11.1645
G00 Z-0.4906
G01 Z-0.9906
G01 X10.1739 Z-1.4859
G01 X11.1645 Z-1.9812
G01 X0.0000
G02 X-1.5875 Y18.0810 I0.0000 J1.5875
G01 Y18.6232
G00 Z0.0000
G01 Y22.7888
G00 Z-0.4906
G01 Z-0.9906
G02 X-1.5334 Y23.7419 Z-1.4704 I2.6724 J0.3264
G02 X-1.5251 Y23.7717 Z-1.4859 I1.5334 J-0.4109
G03 X-1.5334 Y23.7419 Z-1.5014 I1.5251 J-0.4407
G03 X-1.5875 Y22.7888 Z-1.9812 I2.6183 J-0.6267
G02 X-1.5334 Y23.7419 I2.6724 J0.3264
G02 X0.0000 Y24.9185 I1.5334 J-0.4109
G01 X19.6571
G01 Y30.9121
G00 Z0.0000
G01 Y35.0777
G00 Z-0.4906
G01 Z-0.9906
G01 Y36.0683 Z-1.4859
G01 Y35.0777 Z-1.9812
G01 Y41.0714
G02 X21.2446 Y42.6589 I1.5875 J0.0000
G01 X36.0334
G00 Z0.0000
G01 X40.1990
G00 Z-0.4906
G01 Z-0.9906
G01 X41.1896 Z-1.4859
G01 X40.1990 Z-1.9812
G01 X63.0069
G02 X64.5944 Y41.0714 I0.0000 J-1.5875
G01 Y31.8733
G01 X80.2239
G00 Z0.0000
G01 X84.3895
G00 Z-0.4906
G01 Z-0.9906
G01 X85.3801 Z-1.4859
G01 X84.3895 Z-1.9812
G01 X100.0189
G02 X101.6064 Y30.2858 I0.0000 J-1.5875
G01 Y26.2563
G00 Z0.0000
G01 Y22.0907
G00 Z-0.4906
G01 Z-0.9906
G01 Y21.1001 Z-1.4859
G01 Y22.0907 Z-1.9812
G01 Y18.0613
G02 X100.0189 Y16.4738 I-1.5875 J0.0000
G01 X94.7689
G02 X93.1814 Y18.0613 I0.0000 J1.5875
G01 Y23.4483
G01 X83.4561
G00 Z0.0000
G01 X79.2905
G00 Z-0.4906
G01 Z-0.9906
G01 X78.2999 Z-1.4859
G01 X79.2905 Z-1.9812
G01 X57.7569
G02 X56.1694 Y25.0358 I0.0000 J1.5875
G01 Y29.4839
G01 X47.9780
G02 X44.8462 Y31.0842 I-0.3183 J3.2417
G02 X44.4194 Y32.6697 I2.7320 J1.5856
G01 Y33.4839
G01 X38.3336
G00 Z0.0000
G01 X34.1680
G00 Z-0.4906
G01 Z-0.9906
G01 X33.1774 Z-1.4859
G01 X34.1680 Z-1.9812
G01 X28.0821
G01 Y18.0810
G02 X26.4946 Y16.4935 I-1.5875 J0.0000
G01 X15.3301
G00 Z0.0000
G01 X11.1645
G00 Z-1.4812
G01 Z-1.9812
G01 X10.9105 Z-2.1082
G01 X11.1645 Z-2.2352
G01 X0.0000
G02 X-1.5875 Y18.0810 I0.0000 J1.5875
G01 Y18.6232
G00 Z0.0000
G01 Y22.7888
G00 Z-1.4812
G01 Z-1.9812
G02 X-1.6064 Y23.0420 Z-2.1082 I2.6724 J0.3264
G03 X-1.5875 Y22.7888 Z-2.2352 I2.6913 J0.0732
G02 X-1.5334 Y23.7419 I2.6724 J0.3264
G02 X0.0000 Y24.9185 I1.5334 J-0.4109
G01 X19.6571
G01 Y30.9121
G00 Z0.0000
G01 Y35.0777
G00 Z-1.4812
G01 Z-1.9812
G01 Y35.3317 Z-2.1082
G01 Y35.0777 Z-2.2352
G01 Y41.0714
G02 X21.2446 Y42.6589 I1.5875 J0.0000
G01 X36.0334
G00 Z0.0000
G01 X40.1990
G00 Z-1.4812
G01 Z-1.9812
G01 X40.4530 Z-2.1082
G01 X40.1990 Z-2.2352
G01 X63.0069
G02 X64.5944 Y41.0714 I0.0000 J-1.5875
G01 Y31.8733
G01 X80.2239
G00 Z0.0000
G01 X84.3895
G00 Z-1.4812
G01 Z-1.9812
G01 X84.6435 Z-2.1082
G01 X84.3895 Z-2.2352
G01 X100.0189
G02 X101.6064 Y30.2858 I0.0000 J-1.5875
G01 Y26.2563
G00 Z0.0000
G01 Y22.0907
G00 Z-1.4812
G01 Z-1.9812
G01 Y21.8367 Z-2.1082
G01 Y22.0907 Z-2.2352
G01 Y18.0613
G02 X100.0189 Y16.4738 I-1.5875 J0.0000
G01 X94.7689
G02 X93.1814 Y18.0613 I0.0000 J1.5875
G01 Y23.4483
G01 X83.4561
G00 Z0.0000
G01 X79.2905
G00 Z-1.4812
G01 Z-1.9812
G01 X79.0365 Z-2.1082
G01 X79.2905 Z-2.2352
G01 X57.7569
G02 X56.1694 Y25.0358 I0.0000 J1.5875
G01 Y29.4839
G01 X47.9780
G02 X44.8462 Y31.0842 I-0.3183 J3.2417
G02 X44.4194 Y32.6697 I2.7320 J1.5856
G01 Y33.4839
G01 X38.3336
G00 Z0.0000
G01 X34.1680
G00 Z-1.4812
G01 Z-1.9812
G01 X33.9140 Z-2.1082
G01 X34.1680 Z-2.2352
G01 X28.0821
G01 Y18.0810
G02 X26.4946 Y16.4935 I-1.5875 J0.0000
G01 X15.3301
G00 Z0.0000
G01 X11.1645
G00 Z3.1750
G00 X0.0000 Y0.0000

M05
M30
