(Project opi5 heatsink)
(Created by Estlcam version 11 build 11.238)
(Machining time about 01:02:43 hours)

(Required tools:)
(1/8th  2 flute)

G90
M03 S15000
G00 Z3.1750


(No. 1: Hole 3)
G00 X4.9125 Y1.5875
G00 Z0.5000
G01 Z0.0000 F20 S15000
G01 Y4.1275 Z-1.2700
G01 Y1.5875 Z-2.5400
G01 Y15.4125
G01 X1.5875
G01 X1.1225 Y15.8775
G01 X1.5875 Y15.4125
G01 Y1.5875
G01 X1.1225 Y1.1225
G01 X1.5875 Y1.5875
G01 X4.9125
G01 Y4.1275 Z-3.8100
G01 Y1.5875 Z-5.0800
G01 Y15.4125
G01 X1.5875
G01 X1.1225 Y15.8775
G01 X1.5875 Y15.4125
G01 Y1.5875
G01 X1.1225 Y1.1225
G01 X1.5875 Y1.5875
G01 X4.9125
G01 Y4.1275 Z-6.3500
G01 Y1.5875 Z-7.6200
G01 Y15.4125
G01 X1.5875
G01 X1.1225 Y15.8775
G01 X1.5875 Y15.4125
G01 Y1.5875
G01 X1.1225 Y1.1225
G01 X1.5875 Y1.5875
G01 X4.9125
G01 Y2.9591 Z-8.3058
G01 Y1.5875 Z-8.9916
G01 Y15.4125
G01 X1.5875
G01 X1.1225 Y15.8775
G01 X1.5875 Y15.4125
G01 Y1.5875
G01 X1.1225 Y1.1225
G01 X1.5875 Y1.5875
G01 X4.9125
G00 Z3.1750


(No. 2: Hole 4)
G00 X28.4125 Y1.5875 Z3.1750
G00 Z0.5000
G01 Z0.0000 F20
G01 X28.8775 Y1.1225 Z-0.3288
G01 X28.4125 Y1.5875 Z-0.6576
G01 Y2.8124 Z-1.2700
G01 Y1.5875 Z-1.8824
G01 X28.8775 Y1.1225 Z-2.2112
G01 X28.4125 Y1.5875 Z-2.5400
G01 X28.8775 Y1.1225
G01 X28.4125 Y1.5875
G01 Y15.4125
G01 X28.8775 Y15.8775
G01 X28.4125 Y15.4125
G01 X25.0875
G01 Y1.5875
G01 X28.4125
G01 X28.8775 Y1.1225 Z-2.8688
G01 X28.4125 Y1.5875 Z-3.1976
G01 Y2.8124 Z-3.8100
G01 Y1.5875 Z-4.4224
G01 X28.8775 Y1.1225 Z-4.7512
G01 X28.4125 Y1.5875 Z-5.0800
G01 X28.8775 Y1.1225
G01 X28.4125 Y1.5875
G01 Y15.4125
G01 X28.8775 Y15.8775
G01 X28.4125 Y15.4125
G01 X25.0875
G01 Y1.5875
G01 X28.4125
G01 X28.8775 Y1.1225 Z-5.4088
G01 X28.4125 Y1.5875 Z-5.7376
G01 Y2.8124 Z-6.3500
G01 Y1.5875 Z-6.9624
G01 X28.8775 Y1.1225 Z-7.2912
G01 X28.4125 Y1.5875 Z-7.6200
G01 X28.8775 Y1.1225
G01 X28.4125 Y1.5875
G01 Y15.4125
G01 X28.8775 Y15.8775
G01 X28.4125 Y15.4125
G01 X25.0875
G01 Y1.5875
G01 X28.4125
G01 X28.8775 Y1.1225 Z-7.9488
G01 X28.4125 Y1.5875 Z-8.2776
G01 Y1.6440 Z-8.3058
G01 Y1.5875 Z-8.3340
G01 X28.8775 Y1.1225 Z-8.6628
G01 X28.4125 Y1.5875 Z-8.9916
G01 X28.8775 Y1.1225
G01 X28.4125 Y1.5875
G01 Y15.4125
G01 X28.8775 Y15.8775
G01 X28.4125 Y15.4125
G01 X25.0875
G01 Y1.5875
G01 X28.4125
G00 Z3.1750


(No. 3: Hole 8)
G00 X26.6102 Y8.3677 Z3.1750
G00 Z-8.4662
G01 Z-8.9662 F20
G03 X27.3095 Y8.2286 Z-9.3973 I0.3898 J0.1323
G03 X27.0803 Y8.9037 Z-9.8284 I-0.3095 J0.2714
G03 X26.5978 Y8.4124 Z-10.2362 I-0.0803 J-0.4037
G02 X27.0803 Y8.9037 Z-10.6440 I0.4022 J0.0876
G02 X27.3095 Y8.2286 Z-11.0751 I-0.0803 J-0.4037
G02 X26.6102 Y8.3677 Z-11.5062 I-0.3095 J0.2714
G03 X27.3095 Y8.2286 I0.3898 J0.1323
G03 X27.0803 Y8.9037 I-0.3095 J0.2714
G03 X26.6102 Y8.3677 I-0.0803 J-0.4037
G03 X27.3095 Y8.2286 Z-11.9373 I0.3898 J0.1323
G03 X27.4101 Y8.5352 Z-12.1031 I-0.3095 J0.2714
G02 X27.3095 Y8.2286 Z-12.2689 I-0.4101 J-0.0352
G02 X26.6102 Y8.3677 Z-12.7000 I-0.3095 J0.2714
G03 X27.3095 Y8.2286 I0.3898 J0.1323
G03 X27.0803 Y8.9037 I-0.3095 J0.2714
G03 X26.6102 Y8.3677 I-0.0803 J-0.4037
G00 Z3.1750


(No. 4: Hole 10)
G00 X26.6102 Y8.3677 Z3.1750
G00 Z-8.4662
G01 Z-8.9662 F20
G03 X27.3095 Y8.2286 Z-9.3973 I0.3898 J0.1323
G03 X27.0803 Y8.9037 Z-9.8284 I-0.3095 J0.2714
G03 X26.5978 Y8.4124 Z-10.2362 I-0.0803 J-0.4037
G02 X27.0803 Y8.9037 Z-10.6440 I0.4022 J0.0876
G02 X27.3095 Y8.2286 Z-11.0751 I-0.0803 J-0.4037
G02 X26.6102 Y8.3677 Z-11.5062 I-0.3095 J0.2714
G03 X27.3095 Y8.2286 I0.3898 J0.1323
G03 X27.0803 Y8.9037 I-0.3095 J0.2714
G03 X26.6102 Y8.3677 I-0.0803 J-0.4037
G03 X27.3095 Y8.2286 Z-11.9373 I0.3898 J0.1323
G03 X27.4101 Y8.5352 Z-12.1031 I-0.3095 J0.2714
G02 X27.3095 Y8.2286 Z-12.2689 I-0.4101 J-0.0352
G02 X26.6102 Y8.3677 Z-12.7000 I-0.3095 J0.2714
G03 X27.3095 Y8.2286 I0.3898 J0.1323
G03 X27.0803 Y8.9037 I-0.3095 J0.2714
G03 X26.6102 Y8.3677 I-0.0803 J-0.4037
G00 Z3.1750


(No. 5: Hole 7)
G00 X2.8677 Y8.1102 Z3.1750
G00 Z-8.4662
G01 Z-8.9662 F20
G03 X3.4037 Y8.5803 Z-9.3973 I0.1323 J0.3898
G03 X2.7286 Y8.8095 Z-9.8284 I-0.4037 J-0.0803
G03 X2.8246 Y8.1276 Z-10.2362 I0.2714 J-0.3095
G02 X2.7286 Y8.8095 Z-10.6440 I0.1754 J0.3724
G02 X3.4037 Y8.5803 Z-11.0751 I0.2714 J-0.3095
G02 X2.8677 Y8.1102 Z-11.5062 I-0.4037 J-0.0803
G03 X3.4037 Y8.5803 I0.1323 J0.3898
G03 X2.7286 Y8.8095 I-0.4037 J-0.0803
G03 X2.8677 Y8.1102 I0.2714 J-0.3095
G03 X3.4037 Y8.5803 Z-11.9373 I0.1323 J0.3898
G03 X3.2217 Y8.8468 Z-12.1031 I-0.4037 J-0.0803
G02 X3.4037 Y8.5803 Z-12.2689 I-0.2217 J-0.3468
G02 X2.8677 Y8.1102 Z-12.7000 I-0.4037 J-0.0803
G03 X3.4037 Y8.5803 I0.1323 J0.3898
G03 X2.7286 Y8.8095 I-0.4037 J-0.0803
G03 X2.8677 Y8.1102 I0.2714 J-0.3095
G00 Z3.1750


(No. 6: Hole 9)
G00 X2.8677 Y8.1102 Z3.1750
G00 Z-8.4662
G01 Z-8.9662 F20
G03 X3.4037 Y8.5803 Z-9.3973 I0.1323 J0.3898
G03 X2.7286 Y8.8095 Z-9.8284 I-0.4037 J-0.0803
G03 X2.8246 Y8.1276 Z-10.2362 I0.2714 J-0.3095
G02 X2.7286 Y8.8095 Z-10.6440 I0.1754 J0.3724
G02 X3.4037 Y8.5803 Z-11.0751 I0.2714 J-0.3095
G02 X2.8677 Y8.1102 Z-11.5062 I-0.4037 J-0.0803
G03 X3.4037 Y8.5803 I0.1323 J0.3898
G03 X2.7286 Y8.8095 I-0.4037 J-0.0803
G03 X2.8677 Y8.1102 I0.2714 J-0.3095
G03 X3.4037 Y8.5803 Z-11.9373 I0.1323 J0.3898
G03 X3.2217 Y8.8468 Z-12.1031 I-0.4037 J-0.0803
G02 X3.4037 Y8.5803 Z-12.2689 I-0.2217 J-0.3468
G02 X2.8677 Y8.1102 Z-12.7000 I-0.4037 J-0.0803
G03 X3.4037 Y8.5803 I0.1323 J0.3898
G03 X2.7286 Y8.8095 I-0.4037 J-0.0803
G03 X2.8677 Y8.1102 I0.2714 J-0.3095
G00 Z3.1750


(No. 7: Part 2)
G00 X23.5000 Y-1.5875 Z3.1750
G00 Z0.5000
G01 Z0.0000 F20
G01 X20.9600 Z-1.2700
G01 X23.5000 Z-2.5400
G01 X6.5000
G02 X4.9125 Y0.0000 I0.0000 J1.5875
G01 Y17.0000
G02 X6.5000 Y18.5875 I1.5875 J0.0000
G01 X23.5000
G02 X25.0875 Y17.0000 I0.0000 J-1.5875
G01 Y0.0000
G02 X23.5000 Y-1.5875 I-1.5875 J0.0000
G01 X20.9600 Z-3.8100
G01 X23.5000 Z-5.0800
G01 X6.5000
G02 X4.9125 Y0.0000 I0.0000 J1.5875
G01 Y17.0000
G02 X6.5000 Y18.5875 I1.5875 J0.0000
G01 X23.5000
G02 X25.0875 Y17.0000 I0.0000 J-1.5875
G01 Y0.0000
G02 X23.5000 Y-1.5875 I-1.5875 J0.0000
G01 X20.9600 Z-6.3500
G01 X23.5000 Z-7.6200
G01 X6.5000
G02 X4.9125 Y0.0000 I0.0000 J1.5875
G01 Y17.0000
G02 X6.5000 Y18.5875 I1.5875 J0.0000
G01 X23.5000
G02 X25.0875 Y17.0000 I0.0000 J-1.5875
G01 Y0.0000
G02 X23.5000 Y-1.5875 I-1.5875 J0.0000
G01 X22.1284 Z-8.3058
G01 X23.5000 Z-8.9916
G01 X6.5000
G02 X4.9125 Y0.0000 I0.0000 J1.5875
G01 Y17.0000
G02 X6.5000 Y18.5875 I1.5875 J0.0000
G01 X23.5000
G02 X25.0875 Y17.0000 I0.0000 J-1.5875
G01 Y0.0000
G02 X23.5000 Y-1.5875 I-1.5875 J0.0000
G00 Z3.1750


(No. 8: Part 4)
G00 X17.3813 Y18.5875 Z3.1750
G00 Z-8.4662
G01 Z-8.9662 F20
G01 X19.9213 Z-10.2362
G01 X17.3813 Z-11.5062
G01 X30.0000
G02 X31.5875 Y17.0000 I0.0000 J-1.5875
G01 Y0.0000
G02 X30.0000 Y-1.5875 I-1.5875 J0.0000
G01 X17.3813
G00 Z-10.6680
G01 X12.6188
G01 X11.7806 Z-11.0871
G01 X12.6188 Z-11.5062
G01 X0.0000
G02 X-1.5875 Y0.0000 I0.0000 J1.5875
G01 Y17.0000
G02 X0.0000 Y18.5875 I1.5875 J0.0000
G01 X12.6188
G00 Z-10.6680
G01 X17.3813
G00 Z-11.0062
G01 Z-11.5062
G01 X18.5751 Z-12.1031
G01 X17.3813 Z-12.7000
G01 X30.0000
G02 X31.5875 Y17.0000 I0.0000 J-1.5875
G01 Y0.0000
G02 X30.0000 Y-1.5875 I-1.5875 J0.0000
G01 X17.3813
G00 Z-10.6680
G01 X12.6188
G00 Z-11.0062
G01 Z-11.5062
G01 X11.4250 Z-12.1031
G01 X12.6188 Z-12.7000
G01 X0.0000
G02 X-1.5875 Y0.0000 I0.0000 J1.5875
G01 Y17.0000
G02 X0.0000 Y18.5875 I1.5875 J0.0000
G01 X12.6188
G00 Z-10.6680
G01 X17.3813
G00 Z3.1750
G00 X0.0000 Y0.0000

M05
M30
